X: 20952
T: VICTORIA'S SETT (tune 5)
C:
%R: march, reel
B: Elias Howe "The Musician's Companion" 1843 p.95 #2
S: http://imslp.org/wiki/The_Musician's_Companion_(Howe,_Elias)
Z: 2015 John Chambers <jc:trillian.mit.edu>
N: Added dot to last note in 2nd strain, to fix the rhythm.
M: 2/4
L: 1/16
K: F
% - - - - - - - - - - - - - - - - - - - - - - - - - - - - -
V: 1 name="5"
(cB) |\
A2(AB) c2(cd) | c2f2 A2c2 | B2BA G2c2 | A2F2 F2cB |\
A2(AB) c2(cd) | c2g2A2c2 | B2(BA) G2c2 | F6 H|]
cd |\
e2(ef) g2a2 | b2b2 b2(c'b) | a2a2 a2(c'a) | g2c2 c2(cd) |\
e2ef g2a2 | b2b2 b2(c'b) | a2a2 =b2b2 | a2a2 "^D.C."z2 |]
K: Bb
F2 |\
B2(Bc) d2e2 | (=e2f2) c4 | d2ed c2B2 | A2(f2 e2)c2 |\
B2Bc d2e2 | (=e2f2) c4 | d2ed c2d2 | B2B2"^D.C."B2 |]
% - - - - - - - - - - Dance description - - - - - - - - - -
%%begintext align
%% First two forward and back,
%% back to back,
%% balance four,
%% ladies chain,
%% promenade four,
%% next two, &c.
%%endtext
% - - - - - - - - - - - - - - - - - - - - - - - - - - - - -
%%sep 1 1 300

%%sep 1 1 500

